src/apps/scalable/anydo.svg

<?xml version="1.0" encoding="UTF-8" standalone="no"?>
<svg
   width="128"
   height="128"
   viewBox="0 0 33.866666 33.866668"
   version="1.1"
   id="svg2117"
   inkscape:version="1.1.2 (0a00cf5339, 2022-02-04)"
   sodipodi:docname="anydo.svg"
   xmlns:inkscape="http://www.inkscape.org/namespaces/inkscape"
   xmlns:sodipodi="http://sodipodi.sourceforge.net/DTD/sodipodi-0.dtd"
   xmlns:xlink="http://www.w3.org/1999/xlink"
   xmlns="http://www.w3.org/2000/svg"
   xmlns:svg="http://www.w3.org/2000/svg"
   xmlns:rdf="http://www.w3.org/1999/02/22-rdf-syntax-ns#"
   xmlns:cc="http://creativecommons.org/ns#"
   xmlns:dc="http://purl.org/dc/elements/1.1/">
  <defs
     id="defs2111">
    <linearGradient
       inkscape:collect="always"
       id="linearGradient1669">
      <stop
         style="stop-color:#075efd;stop-opacity:1"
         offset="0"
         id="stop1665" />
      <stop
         style="stop-color:#25abfd;stop-opacity:1"
         offset="1"
         id="stop1667" />
    </linearGradient>
    <linearGradient
       id="linearGradient1630"
       inkscape:collect="always">
      <stop
         id="stop1626"
         offset="0"
         style="stop-color:#fcfdfd;stop-opacity:1" />
      <stop
         id="stop1628"
         offset="1"
         style="stop-color:#ebeff5;stop-opacity:1" />
    </linearGradient>
    <linearGradient
       id="linearGradient895">
      <stop
         id="stop3335"
         offset="0" />
      <stop
         id="stop3337"
         offset="1"
         stop-opacity="0" />
    </linearGradient>
    <linearGradient
       gradientUnits="userSpaceOnUse"
       gradientTransform="translate(78.576,24.134)"
       y2="7.8045998"
       y1="-2.4143"
       x2="-69.273003"
       x1="-81.043999"
       id="linearGradient977">
      <stop
         id="stop860"
         offset="0"
         stop-color="#ffd250" />
      <stop
         id="stop862"
         offset="1"
         stop-color="#ffb42d" />
    </linearGradient>
    <linearGradient
       gradientUnits="userSpaceOnUse"
       gradientTransform="translate(78.576,24.134)"
       y2="-2.4143"
       y1="12.888"
       x2="-81.043999"
       x1="-84.008003"
       id="linearGradient986">
      <stop
         id="stop865"
         offset="0"
         stop-color="#0faa96" />
      <stop
         id="stop867"
         offset="1"
         stop-color="#23b955" />
    </linearGradient>
    <linearGradient
       gradientUnits="userSpaceOnUse"
       gradientTransform="translate(78.576,24.134)"
       y2="7.8045998"
       y1="12.888"
       x2="-69.273003"
       x1="-84.008003"
       id="linearGradient994">
      <stop
         id="stop870"
         offset="0"
         stop-color="#3c82eb" />
      <stop
         id="stop872"
         offset="1"
         stop-color="#05aaff" />
    </linearGradient>
    <filter
       id="a"
       x="-0.061480001"
       y="-0.058589999"
       width="1.123"
       height="1.1172"
       color-interpolation-filters="sRGB">
      <feGaussianBlur
         stdDeviation="1.0261922"
         id="feGaussianBlur12" />
    </filter>
    <linearGradient
       id="SVGID_1_"
       x1="24.837999"
       x2="46.731998"
       y1="33.653999"
       y2="55.548"
       gradientUnits="userSpaceOnUse">
      <stop
         stop-color="#EF6B2E"
         offset=".3569"
         id="stop2" />
      <stop
         stop-color="#F19F00"
         offset=".6328"
         id="stop4" />
    </linearGradient>
    <linearGradient
       id="SVGID_2_"
       x1="24.858999"
       x2="46.752998"
       y1="30.388"
       y2="8.4933004"
       gradientUnits="userSpaceOnUse">
      <stop
         stop-color="#16B8C3"
         offset=".3707"
         id="stop7" />
      <stop
         stop-color="#02AEF0"
         offset=".7422"
         id="stop9" />
    </linearGradient>
    <radialGradient
       inkscape:collect="always"
       xlink:href="#linearGradient1630"
       id="radialGradient1124"
       cx="16.743967"
       cy="4.1208024"
       fx="16.743967"
       fy="4.1208024"
       r="14.54372"
       gradientUnits="userSpaceOnUse"
       gradientTransform="matrix(3.7095258,0,0,1.8361971,-45.36821,-3.4458029)" />
    <linearGradient
       id="linearGradient946"
       x1="31.833"
       x2="32.167"
       y1="51.558998"
       y2="11.098"
       gradientUnits="userSpaceOnUse"
       gradientTransform="matrix(0.53757495,0,0,0.53757495,-0.16614558,-0.50095226)">
      <stop
         stop-color="#f9f9f9"
         offset="0"
         id="stop5" />
      <stop
         stop-color="#f0fee6"
         offset="1"
         id="stop7-3" />
    </linearGradient>
    <linearGradient
       id="a-6"
       x1="62.644001"
       x2="62.644001"
       y1="-123.12"
       y2="132.88"
       gradientUnits="userSpaceOnUse"
       gradientTransform="matrix(0.05762775,0,0,0.05762775,15.197603,14.297281)">
      <stop
         stop-color="#fff"
         offset="0"
         id="stop7-7" />
      <stop
         stop-color="#e8e8e8"
         offset="1"
         id="stop9-5" />
    </linearGradient>
    <linearGradient
       id="c"
       x1="-1.3559"
       x2="-1.3559"
       y1="-59.118999"
       y2="196.88"
       gradientUnits="userSpaceOnUse"
       gradientTransform="matrix(0.05762775,0,0,0.05762775,15.197603,14.297281)">
      <stop
         stop-color="#ffeb42"
         offset="0"
         id="stop2-3" />
      <stop
         stop-color="#ff9311"
         offset="1"
         id="stop4-5" />
    </linearGradient>
    <linearGradient
       id="linearGradient8451"
       x1="282.23999"
       x2="261.03"
       y1="1013.7"
       y2="988.42999"
       gradientTransform="matrix(0.09998848,0.08390334,-0.08390334,0.09998848,73.840997,-103.35206)"
       gradientUnits="userSpaceOnUse">
      <stop
         stop-color="#fff"
         offset="0"
         id="stop2-0" />
      <stop
         stop-color="#fff"
         stop-opacity="0"
         offset="1"
         id="stop4-9" />
    </linearGradient>
    <linearGradient
       inkscape:collect="always"
       xlink:href="#linearGradient1669"
       id="linearGradient1671"
       x1="26.207882"
       y1="27.994755"
       x2="18.796135"
       y2="9.9615088"
       gradientUnits="userSpaceOnUse"
       gradientTransform="scale(3.7795276)" />
  </defs>
  <sodipodi:namedview
     id="base"
     pagecolor="#ffffff"
     bordercolor="#666666"
     borderopacity="1.0"
     inkscape:pageopacity="0.0"
     inkscape:pageshadow="2"
     inkscape:zoom="1.979899"
     inkscape:cx="0.50507627"
     inkscape:cy="41.668792"
     inkscape:document-units="mm"
     inkscape:current-layer="layer1"
     inkscape:document-rotation="0"
     showgrid="false"
     units="px"
     inkscape:window-width="1514"
     inkscape:window-height="941"
     inkscape:window-x="318"
     inkscape:window-y="59"
     inkscape:window-maximized="0"
     inkscape:pagecheckerboard="0" />
  <metadata
     id="metadata2114">
    <rdf:RDF>
      <cc:Work
         rdf:about="">
        <dc:format>image/svg+xml</dc:format>
        <dc:type
           rdf:resource="http://purl.org/dc/dcmitype/StillImage" />
      </cc:Work>
    </rdf:RDF>
  </metadata>
  <g
     inkscape:label="Capa 1"
     inkscape:groupmode="layer"
     id="layer1">
    <g
       style="opacity:0.13961803"
       transform="matrix(0.97573206,0,0,0.97573206,-65.861139,-37.234129)"
       id="g1702">
      <rect
         ry="6.6098609"
         rx="6.6098609"
         y="40.709618"
         x="69.839508"
         height="29.810888"
         width="29.810888"
         id="rect1634"
         style="fill:none;fill-opacity:1;stroke:#000000;stroke-width:0.1;stroke-linecap:round;stroke-linejoin:round;stroke-miterlimit:4;stroke-dasharray:none;stroke-opacity:0.02" />
      <rect
         style="fill:none;fill-opacity:1;stroke:#000000;stroke-width:0.2;stroke-linecap:round;stroke-linejoin:round;stroke-miterlimit:4;stroke-dasharray:none;stroke-opacity:0.02"
         id="rect1638"
         width="29.810888"
         height="29.810888"
         x="69.839508"
         y="40.709618"
         rx="6.6098609"
         ry="6.6098609" />
      <rect
         ry="6.6098609"
         rx="6.6098609"
         y="40.709618"
         x="69.839508"
         height="29.810888"
         width="29.810888"
         id="rect1640"
         style="fill:none;fill-opacity:1;stroke:#000000;stroke-width:0.3;stroke-linecap:round;stroke-linejoin:round;stroke-miterlimit:4;stroke-dasharray:none;stroke-opacity:0.02" />
      <rect
         style="fill:none;fill-opacity:1;stroke:#000000;stroke-width:0.4;stroke-linecap:round;stroke-linejoin:round;stroke-miterlimit:4;stroke-dasharray:none;stroke-opacity:0.02"
         id="rect1642"
         width="29.810888"
         height="29.810888"
         x="69.839508"
         y="40.709618"
         rx="6.6098609"
         ry="6.6098609" />
      <rect
         ry="6.6098609"
         rx="6.6098609"
         y="40.709618"
         x="69.839508"
         height="29.810888"
         width="29.810888"
         id="rect1644"
         style="fill:none;fill-opacity:1;stroke:#000000;stroke-width:0.5;stroke-linecap:round;stroke-linejoin:round;stroke-miterlimit:4;stroke-dasharray:none;stroke-opacity:0.02" />
      <rect
         style="fill:none;fill-opacity:1;stroke:#000000;stroke-width:0.6;stroke-linecap:round;stroke-linejoin:round;stroke-miterlimit:4;stroke-dasharray:none;stroke-opacity:0.02"
         id="rect1646"
         width="29.810888"
         height="29.810888"
         x="69.839508"
         y="40.709618"
         rx="6.6098609"
         ry="6.6098609" />
      <rect
         ry="6.6098609"
         rx="6.6098609"
         y="40.709618"
         x="69.839508"
         height="29.810888"
         width="29.810888"
         id="rect1648"
         style="fill:none;fill-opacity:1;stroke:#000000;stroke-width:0.7;stroke-linecap:round;stroke-linejoin:round;stroke-miterlimit:4;stroke-dasharray:none;stroke-opacity:0.02" />
      <rect
         style="fill:none;fill-opacity:1;stroke:#000000;stroke-width:0.8;stroke-linecap:round;stroke-linejoin:round;stroke-miterlimit:4;stroke-dasharray:none;stroke-opacity:0.02"
         id="rect1650"
         width="29.810888"
         height="29.810888"
         x="69.839508"
         y="40.709618"
         rx="6.6098609"
         ry="6.6098609" />
      <rect
         ry="6.6098609"
         rx="6.6098609"
         y="40.709618"
         x="69.839508"
         height="29.810888"
         width="29.810888"
         id="rect1652"
         style="fill:none;fill-opacity:1;stroke:#000000;stroke-width:1;stroke-linecap:round;stroke-linejoin:round;stroke-miterlimit:4;stroke-dasharray:none;stroke-opacity:0.02" />
      <rect
         style="fill:none;fill-opacity:1;stroke:#000000;stroke-width:1.2;stroke-linecap:round;stroke-linejoin:round;stroke-miterlimit:4;stroke-dasharray:none;stroke-opacity:0.02"
         id="rect1654"
         width="29.810888"
         height="29.810888"
         x="69.839508"
         y="40.709618"
         rx="6.6098609"
         ry="6.6098609" />
      <rect
         ry="6.6098609"
         rx="6.6098609"
         y="40.709618"
         x="69.839508"
         height="29.810888"
         width="29.810888"
         id="rect1656"
         style="fill:none;fill-opacity:1;stroke:#000000;stroke-width:1.4;stroke-linecap:round;stroke-linejoin:round;stroke-miterlimit:4;stroke-dasharray:none;stroke-opacity:0.02" />
      <rect
         style="fill:none;fill-opacity:1;stroke:#000000;stroke-width:1.6;stroke-linecap:round;stroke-linejoin:round;stroke-miterlimit:4;stroke-dasharray:none;stroke-opacity:0.02"
         id="rect1658"
         width="29.810888"
         height="29.810888"
         x="69.839508"
         y="40.709618"
         rx="6.6098609"
         ry="6.6098609" />
      <rect
         ry="6.6098609"
         rx="6.6098609"
         y="40.709618"
         x="69.839508"
         height="29.810888"
         width="29.810888"
         id="rect1660"
         style="fill:none;fill-opacity:1;stroke:#000000;stroke-width:1.8;stroke-linecap:round;stroke-linejoin:round;stroke-miterlimit:4;stroke-dasharray:none;stroke-opacity:0.02" />
      <rect
         style="fill:none;fill-opacity:1;stroke:#000000;stroke-width:2;stroke-linecap:round;stroke-linejoin:round;stroke-miterlimit:4;stroke-dasharray:none;stroke-opacity:0.02"
         id="rect1662"
         width="29.810888"
         height="29.810888"
         x="69.839508"
         y="40.709618"
         rx="6.6098609"
         ry="6.6098609" />
      <rect
         ry="6.6098609"
         rx="6.6098609"
         y="40.709618"
         x="69.839508"
         height="29.810888"
         width="29.810888"
         id="rect1664"
         style="fill:none;fill-opacity:1;stroke:#000000;stroke-width:2.2;stroke-linecap:round;stroke-linejoin:round;stroke-miterlimit:4;stroke-dasharray:none;stroke-opacity:0.02" />
      <rect
         style="fill:none;fill-opacity:1;stroke:#000000;stroke-width:2.6;stroke-linecap:round;stroke-linejoin:round;stroke-miterlimit:4;stroke-dasharray:none;stroke-opacity:0.02"
         id="rect1666"
         width="29.810888"
         height="29.810888"
         x="69.839508"
         y="40.709618"
         rx="6.6098609"
         ry="6.6098609" />
      <rect
         ry="6.6098609"
         rx="6.6098609"
         y="40.709618"
         x="69.839508"
         height="29.810888"
         width="29.810888"
         id="rect1668"
         style="fill:none;fill-opacity:1;stroke:#000000;stroke-width:3;stroke-linecap:round;stroke-linejoin:round;stroke-miterlimit:4;stroke-dasharray:none;stroke-opacity:0.02" />
      <rect
         style="fill:none;fill-opacity:1;stroke:#000000;stroke-width:3.4;stroke-linecap:round;stroke-linejoin:round;stroke-miterlimit:4;stroke-dasharray:none;stroke-opacity:0.02"
         id="rect1670"
         width="29.810888"
         height="29.810888"
         x="69.839508"
         y="40.709618"
         rx="6.6098609"
         ry="6.6098609" />
      <rect
         ry="6.6098609"
         rx="6.6098609"
         y="40.709618"
         x="69.839508"
         height="29.810888"
         width="29.810888"
         id="rect1672"
         style="fill:none;fill-opacity:1;stroke:#000000;stroke-width:3.8;stroke-linecap:round;stroke-linejoin:round;stroke-miterlimit:4;stroke-dasharray:none;stroke-opacity:0.02" />
      <rect
         style="fill:none;fill-opacity:1;stroke:#000000;stroke-width:4.2;stroke-linecap:round;stroke-linejoin:round;stroke-miterlimit:4;stroke-dasharray:none;stroke-opacity:0.02"
         id="rect1674"
         width="29.810888"
         height="29.810888"
         x="69.839508"
         y="40.709618"
         rx="6.6098609"
         ry="6.6098609" />
      <rect
         ry="6.6098609"
         rx="6.6098609"
         y="40.709618"
         x="69.839508"
         height="29.810888"
         width="29.810888"
         id="rect1676"
         style="fill:none;fill-opacity:1;stroke:#000000;stroke-width:4.6;stroke-linecap:round;stroke-linejoin:round;stroke-miterlimit:4;stroke-dasharray:none;stroke-opacity:0.02" />
      <rect
         style="fill:none;fill-opacity:1;stroke:#000000;stroke-width:5;stroke-linecap:round;stroke-linejoin:round;stroke-miterlimit:4;stroke-dasharray:none;stroke-opacity:0.02"
         id="rect1678"
         width="29.810888"
         height="29.810888"
         x="69.839508"
         y="40.709618"
         rx="6.6098609"
         ry="6.6098609" />
    </g>
    <rect
       style="fill:url(#radialGradient1124);fill-opacity:1;stroke-width:2.68769;stroke-linecap:round;stroke-linejoin:round"
       id="rect910"
       width="29.08744"
       height="29.08744"
       x="2.2835085"
       y="2.4875498"
       rx="6.4494534"
       ry="6.4494534" />
    <path
       id="path28"
       style="opacity:1;fill:url(#linearGradient1671);fill-opacity:1;stroke:none;stroke-opacity:1"
       d="M 86.763672 39.201172 C 85.497222 39.190311 84.236815 39.72701 83.355469 40.777344 L 55.072266 74.482422 L 41.589844 63.169922 C 39.722519 61.603085 36.95934 61.845713 35.392578 63.712891 L 29.734375 70.453125 C 28.167538 72.320442 28.409925 75.085575 30.277344 76.652344 L 53.873047 96.449219 C 55.740296 98.016056 58.503396 97.775622 60.070312 95.908203 L 96.837891 52.089844 C 98.404732 50.222515 98.164132 47.457466 96.296875 45.890625 L 89.554688 40.234375 C 88.737733 39.548884 87.748689 39.209619 86.763672 39.201172 z "
       transform="scale(0.26458333)" />
  </g>
</svg>

<?xml version="1.0" encoding="UTF-8"?>
<svg id="svg2117" width="128" height="128" version="1.1" viewBox="0 0 33.867 33.867" xmlns="http://www.w3.org/2000/svg" xmlns:cc="http://creativecommons.org/ns#" xmlns:dc="http://purl.org/dc/elements/1.1/" xmlns:rdf="http://www.w3.org/1999/02/22-rdf-syntax-ns#" xmlns:xlink="http://www.w3.org/1999/xlink">
 <defs id="defs2111">
  <radialGradient id="radialGradient1124" cx="16.744" cy="4.1208" r="14.544" gradientTransform="matrix(3.7095 0 0 1.8362 -45.368 -3.4458)" gradientUnits="userSpaceOnUse">
   <stop id="stop1626" stop-color="#fcfdfd" offset="0"/>
   <stop id="stop1628" stop-color="#ebeff5" offset="1"/>
  </radialGradient>
  <linearGradient id="linearGradient1671" x1="26.208" x2="18.796" y1="27.995" y2="9.9615" gradientTransform="scale(3.7795)" gradientUnits="userSpaceOnUse">
   <stop id="stop1665" stop-color="#075efd" offset="0"/>
   <stop id="stop1667" stop-color="#25abfd" offset="1"/>
  </linearGradient>
 </defs>
 <metadata id="metadata2114">
  <rdf:RDF>
   <cc:Work rdf:about="">
    <dc:format>image/svg+xml</dc:format>
    <dc:type rdf:resource="http://purl.org/dc/dcmitype/StillImage"/>
   </cc:Work>
  </rdf:RDF>
 </metadata>
 <g id="layer1">
  <g id="g1702" transform="matrix(.97573 0 0 .97573 -65.861 -37.234)" fill="none" opacity=".13962" stroke="#000" stroke-linecap="round" stroke-linejoin="round" stroke-opacity=".02">
   <rect id="rect1634" x="69.84" y="40.71" width="29.811" height="29.811" rx="6.6099" ry="6.6099" stroke-width=".1"/>
   <rect id="rect1638" x="69.84" y="40.71" width="29.811" height="29.811" rx="6.6099" ry="6.6099" stroke-width=".2"/>
   <rect id="rect1640" x="69.84" y="40.71" width="29.811" height="29.811" rx="6.6099" ry="6.6099" stroke-width=".3"/>
   <rect id="rect1642" x="69.84" y="40.71" width="29.811" height="29.811" rx="6.6099" ry="6.6099" stroke-width=".4"/>
   <rect id="rect1644" x="69.84" y="40.71" width="29.811" height="29.811" rx="6.6099" ry="6.6099" stroke-width=".5"/>
   <rect id="rect1646" x="69.84" y="40.71" width="29.811" height="29.811" rx="6.6099" ry="6.6099" stroke-width=".6"/>
   <rect id="rect1648" x="69.84" y="40.71" width="29.811" height="29.811" rx="6.6099" ry="6.6099" stroke-width=".7"/>
   <rect id="rect1650" x="69.84" y="40.71" width="29.811" height="29.811" rx="6.6099" ry="6.6099" stroke-width=".8"/>
   <rect id="rect1652" x="69.84" y="40.71" width="29.811" height="29.811" rx="6.6099" ry="6.6099"/>
   <rect id="rect1654" x="69.84" y="40.71" width="29.811" height="29.811" rx="6.6099" ry="6.6099" stroke-width="1.2"/>
   <rect id="rect1656" x="69.84" y="40.71" width="29.811" height="29.811" rx="6.6099" ry="6.6099" stroke-width="1.4"/>
   <rect id="rect1658" x="69.84" y="40.71" width="29.811" height="29.811" rx="6.6099" ry="6.6099" stroke-width="1.6"/>
   <rect id="rect1660" x="69.84" y="40.71" width="29.811" height="29.811" rx="6.6099" ry="6.6099" stroke-width="1.8"/>
   <rect id="rect1662" x="69.84" y="40.71" width="29.811" height="29.811" rx="6.6099" ry="6.6099" stroke-width="2"/>
   <rect id="rect1664" x="69.84" y="40.71" width="29.811" height="29.811" rx="6.6099" ry="6.6099" stroke-width="2.2"/>
   <rect id="rect1666" x="69.84" y="40.71" width="29.811" height="29.811" rx="6.6099" ry="6.6099" stroke-width="2.6"/>
   <rect id="rect1668" x="69.84" y="40.71" width="29.811" height="29.811" rx="6.6099" ry="6.6099" stroke-width="3"/>
   <rect id="rect1670" x="69.84" y="40.71" width="29.811" height="29.811" rx="6.6099" ry="6.6099" stroke-width="3.4"/>
   <rect id="rect1672" x="69.84" y="40.71" width="29.811" height="29.811" rx="6.6099" ry="6.6099" stroke-width="3.8"/>
   <rect id="rect1674" x="69.84" y="40.71" width="29.811" height="29.811" rx="6.6099" ry="6.6099" stroke-width="4.2"/>
   <rect id="rect1676" x="69.84" y="40.71" width="29.811" height="29.811" rx="6.6099" ry="6.6099" stroke-width="4.6"/>
   <rect id="rect1678" x="69.84" y="40.71" width="29.811" height="29.811" rx="6.6099" ry="6.6099" stroke-width="5"/>
  </g>
  <rect id="rect910" x="2.2835" y="2.4875" width="29.087" height="29.087" rx="6.4495" ry="6.4495" fill="url(#radialGradient1124)" stroke-linecap="round" stroke-linejoin="round" stroke-width="2.6877"/>
  <path id="path28" transform="scale(.26458)" d="m86.764 39.201c-1.2664-0.010861-2.5269 0.52584-3.4082 1.5762l-28.283 33.705-13.482-11.312c-1.8673-1.5668-4.6305-1.3242-6.1973 0.54297l-5.6582 6.7402c-1.5668 1.8673-1.3244 4.6324 0.54297 6.1992l23.596 19.797c1.8672 1.5668 4.6303 1.3264 6.1973-0.54102l36.768-43.818c1.5668-1.8673 1.3262-4.6324-0.54102-6.1992l-6.7422-5.6562c-0.81696-0.68549-1.806-1.0248-2.791-1.0332z" fill="url(#linearGradient1671)"/>
 </g>
</svg>
